X: 10235
T: Do You Love An Apple
R: waltz
M: 3/4
K: Gmajor
d2|g2g2g2|e2d2dd|g2f2g2|e4d2|g2f2g2|e2d3B|B2A2G2|A3BA2|
G4A2|Bd3d2|e4d2|eg3d2|g2f2g2|e2d2B2|A3BA2|(G6|G4)||

